!! 00000] TT[WS
!!!OTL: Shuzhuang tai
!!!ARE: Asia, China, Shanxi Xingxian
!! Ethnic Group: Han
!! WII, 88 (1)
!!!SCT: J0528
!!!YEM: Copyright 1995, estate of Helmut Schaffrath.
**kern
*ICvox
*Ivox
*M2/4
*k[b-]
*F:
{4f
8d
8c
=1
4f
4f
=2
8cc
8dd
8cc
8a
=3
8g
8f
4g}
=4
{8g
8a
4cc
=5
8dd
8cc
8a
8g
=6
8f
8a
8f
8d
=7
2c}
=8
{8a
8g
4f
=9
8g
8a
4cc
=10
8g
8a
8g
8f
=11
8d
8c
4d}
=12
{8g
8a
4cc
=13
8ff
8dd
8cc
8cc
=14
8f
8f
8f
8a
=15
4g
8f
8d
=16
2c}
==
!!!AGN: Xiaodiao. Qingge, Sichun
!!!ONB: ESAC (Essen Associative Code) Database: CHINA
!!!AMT: simple duple
!!!AIN: vox
!!!EED: Helmut Schaffrath
!!!EEV: 1.0
*-
